;FLAVOR:Marlin
;TIME:670
;Filament used: 35.1171m
;Layer height: 2
;MINX:17.122
;MINY:80.458
;MINZ:2
;MAXX:122.842
;MAXY:178.602
;MAXZ:70
;Generated with Cura_SteamEngine 4.5.0
;M104 S20
;M105
;M109 S20
M82 ;absolute extrusion mode
G28 X ;Home
G28 Y
G92 E0
G92 E0
;LAYER_COUNT:35

M563 P1 D0 ;H0 ; tool 1 uses extruder 0, heater 0 (and fan 0)
T1 ;select tool 1
M302 P1 ;enable the cold extrusion

M106 P1 I-1 ;disable FAN1 signal
M571 P21 F50 S0.2 ;is the command to set the fan with the extruder

;LAYER:0
M107
;MESH:PhilippPot.obj
G0 F7200 X94.33 Y95.725 ;Z2
;TYPE:WALL-OUTER
G1 F7200
G1 X95.13 Y96.875 E0.87839
G1 X96.159 Y98.523 E2.0966
G1 X96.57 Y99.2 E2.59319
G1 X97.841 Y101.342 E4.15491
G1 X99.813 Y104.748 E6.62266
G1 X100.397 Y105.78 E7.36617
G1 X102.034 Y108.632 E9.42806
G1 X102.685 Y109.795 E10.26376
G1 X104.462 Y112.892 E12.50259
G1 X105.169 Y114.155 E13.41014
G1 X106.939 Y117.239 E15.63972
G1 X107.643 Y118.495 E16.54253
G1 X109.256 Y121.306 E18.57464
G1 X109.897 Y122.451 E19.39742
G1 X111.205 Y124.73 E21.04502
G1 X111.726 Y125.66 E21.71342
G1 X112.58 Y127.149 E22.78971
G1 X112.92 Y127.753 E23.22431
G1 X113.394 Y128.615 E23.84113
G1 X113.894 Y129.64 E24.55621
G1 X113.989 Y130.023 E24.80363
G1 X114.039 Y130.525 E25.11995
G1 X114.031 Y131.118 E25.49181
G1 X113.952 Y131.811 E25.92915
G1 X113.804 Y132.549 E26.4011
G1 X113.576 Y133.358 E26.92812
G1 X113.026 Y134.627 E27.79533
G1 X112.699 Y135.231 E28.22599
G1 X111.859 Y136.827 E29.35685
G1 X111.276 Y137.814 E30.07561
G1 X109.832 Y140.327 E31.89292
G1 X107.602 Y144.054 E34.61619
G1 X104.031 Y149.84 E38.87945
G1 X102.94 Y151.556 E40.15446
G1 X100.239 Y155.77 E43.29289
G1 X99.145 Y157.433 E44.54102
G1 X96.781 Y160.899 E47.17163
G1 X95.826 Y162.258 E48.21311
G1 X94.169 Y164.331 E49.87713
G1 X93.538 Y165.099 E50.50037
G1 X92.451 Y166.096 E51.42521
G1 X92.094 Y166.413 E51.72457
G1 X91.31 Y166.765 E52.26342
G1 X86.782 Y166.856 E55.10314
G1 X86.123 Y166.863 E55.51636
G1 X83.443 Y166.925 E57.19722
G1 X82.371 Y166.937 E57.86943
G1 X78.318 Y167.03 E60.41141
G1 X76.692 Y167.048 E61.431
G1 X71.965 Y167.156 E64.39569
G1 X70.066 Y167.18 E65.58649
G1 X65.366 Y167.286 E68.53423
G1 X63.478 Y167.31 E69.71814
G1 X59.507 Y167.399 E72.20865
G1 X57.912 Y167.418 E73.20882
G1 X55.366 Y167.476 E74.80562
G1 X54.353 Y167.489 E75.44084
G1 X52.361 Y167.49 E76.68986
G1 X51.556 Y167.417 E77.19669
G1 X51.351 Y167.325 E77.33758
G1 X51.115 Y167.124 E77.53195
G1 X50.721 Y166.573 E77.95667
G1 X49.712 Y164.976 E79.14114
G1 X49.377 Y164.419 E79.54869
G1 X47.959 Y162.049 E81.2804
G1 X47.4 Y161.092 E81.97532
G1 X45.211 Y157.431 E84.64988
G1 X44.34 Y155.938 E85.73368
G1 X41.752 Y151.607 E88.89719
G1 X40.731 Y149.854 E90.1692
G1 X38.127 Y145.497 E93.35185
G1 X37.1 Y143.734 E94.63117
G1 X34.86 Y139.985 E97.3695
G1 X33.978 Y138.469 E98.46923
G1 X32.48 Y135.963 E100.29987
G1 X31.894 Y134.957 E101.02986
G1 X31.006 Y133.408 E102.14939
G1 X30.661 Y132.794 E102.59099
G1 X30.117 Y131.642 E103.38981
G1 X29.989 Y131.056 E103.7659
G1 X30.021 Y130.561 E104.07692
G1 X30.432 Y129.529 E104.77344
G1 X31.194 Y128.072 E105.8044
G1 X31.512 Y127.477 E106.22742
G1 X32.89 Y124.988 E108.01128
G1 X33.46 Y123.982 E108.73628
G1 X35.571 Y120.17 E111.4685
G1 X36.442 Y118.634 E112.57567
G1 X38.922 Y114.161 E115.78256
G1 X39.938 Y112.372 E117.07257
G1 X42.404 Y107.919 E120.26423
G1 X43.423 Y106.126 E121.55735
G1 X45.516 Y102.351 E124.26381
G1 X46.379 Y100.83 E125.36032
G1 X47.732 Y98.389 E127.11027
G1 X48.279 Y97.425 E127.80524
G1 X49.08 Y96.031 E128.81333
G1 X49.399 Y95.49 E129.20712
G1 X49.942 Y94.692 E129.81233
G1 X50.175 Y94.496 E130.00325
G1 X50.466 Y94.369 E130.20233
G1 X50.869 Y94.285 E130.46045
G1 X51.357 Y94.246 E130.76741
G1 X55.452 Y94.175 E133.33544
G1 X58.006 Y94.117 E134.93725
G1 X59.027 Y94.105 E135.57748
G1 X63.063 Y94.013 E138.10879
G1 X64.682 Y93.994 E139.124
G1 X69.466 Y93.883 E142.12446
G1 X71.386 Y93.859 E143.32843
G1 X76.18 Y93.75 E146.33514
G1 X78.105 Y93.726 E147.54224
G1 X82.173 Y93.633 E150.09362
G1 X83.806 Y93.612 E151.11763
G1 X86.413 Y93.553 E152.75268
G1 X87.456 Y93.54 E153.40671
G1 X88.96 Y93.506 E154.34999
G1 X89.556 Y93.498 E154.72373
G1 X91.523 Y93.459 E155.95732
G1 X91.821 Y93.476 E156.14447
G1 X92.069 Y93.526 E156.3031
G1 X92.514 Y93.731 E156.61031
G1 X92.747 Y93.871 E156.78075
G1 X93.264 Y94.347 E157.22139
G1 X94.033 Y95.284 E157.98143
G1 X94.33 Y95.725 E158.31481
G0 X94.558 Y96.053
G0 X94.476 Y96.109
G0 X92.688 Y96.849
;TYPE:SKIN
G1 X93.467 Y97.97 E159.17075
G1 X94.458 Y99.556 E160.34337
G1 X94.859 Y100.215 E160.82706
G1 X96.119 Y102.339 E162.37555
G1 X98.081 Y105.728 E164.83094
G1 X98.668 Y106.765 E165.5781
G1 X100.297 Y109.604 E167.63043
G1 X100.954 Y110.776 E168.47288
G1 X102.725 Y113.864 E170.70495
G1 X103.438 Y115.136 E171.61927
G1 X105.203 Y118.212 E173.84293
G1 X105.912 Y119.476 E174.75165
G1 X107.519 Y122.278 E176.77699
G1 X108.166 Y123.432 E177.60653
G1 X109.469 Y125.703 E179.24823
G1 X109.995 Y126.641 E179.92253
G1 X110.846 Y128.126 E180.99571
G1 X111.176 Y128.712 E181.4174
G1 X111.627 Y129.532 E182.00419
G1 X112.014 Y130.326 E182.55803
G1 X112.024 Y130.366 E182.58388
G1 X112.047 Y130.602 E182.73256
G1 X112.043 Y130.981 E182.97021
G1 X111.983 Y131.513 E183.3059
G1 X111.87 Y132.075 E183.66534
G1 X111.697 Y132.689 E184.06532
G1 X111.23 Y133.765 E184.80079
G1 X110.944 Y134.293 E185.17731
G1 X110.119 Y135.858 E186.28659
G1 X109.556 Y136.813 E186.9817
G1 X108.124 Y139.306 E188.78439
G1 X105.901 Y143.021 E191.49895
G1 X102.352 Y148.772 E195.73628
G1 X101.265 Y150.482 E197.00678
G1 X98.57 Y154.686 E200.1379
G1 X97.501 Y156.312 E201.35803
G1 X95.153 Y159.755 E203.97108
G1 X94.23 Y161.069 E204.97793
G1 X92.631 Y163.067 E206.58251
G1 X92.083 Y163.733 E207.1233
G1 X90.998 Y164.724 E208.04467
G1 X90.867 Y164.783 E208.13476
G1 X86.742 Y164.866 E210.72173
G1 X86.089 Y164.873 E211.1312
G1 X83.397 Y164.935 E212.81958
G1 X82.337 Y164.947 E213.48426
G1 X78.272 Y165.04 E216.03376
G1 X76.658 Y165.058 E217.04583
G1 X71.919 Y165.166 E220.01804
G1 X70.031 Y165.19 E221.20195
G1 X65.321 Y165.296 E224.15596
G1 X63.443 Y165.32 E225.33359
G1 X59.463 Y165.409 E227.82975
G1 X57.878 Y165.428 E228.82365
G1 X55.321 Y165.486 E230.42735
G1 X54.327 Y165.499 E231.05066
G1 X52.452 Y165.5 E232.22632
G1 X52.396 Y165.495 E232.26157
G1 X52.367 Y165.454 E232.29306
G1 X51.406 Y163.932 E233.42169
G1 X51.083 Y163.396 E233.81408
G1 X49.667 Y161.028 E235.54407
G1 X49.113 Y160.08 E236.23254
G1 X46.925 Y156.419 E238.90678
G1 X46.053 Y154.926 E239.99089
G1 X43.46 Y150.586 E243.16085
G1 X42.445 Y148.843 E244.42555
G1 X39.835 Y144.476 E247.61551
G1 X38.814 Y142.723 E248.88752
G1 X36.568 Y138.964 E251.63316
G1 X35.692 Y137.458 E252.72558
G1 X34.188 Y134.942 E254.56353
G1 X33.618 Y133.962 E255.27439
G1 X32.733 Y132.419 E256.38972
G1 X32.424 Y131.869 E256.78528
G1 X32.013 Y130.999 E257.38859
G1 X32.005 Y130.959 E257.41417
G1 X32.245 Y130.355 E257.82169
G1 X32.949 Y129.01 E258.77357
G1 X33.253 Y128.441 E259.17807
G1 X34.626 Y125.961 E260.95548
G1 X35.196 Y124.955 E261.68048
G1 X37.307 Y121.143 E264.4127
G1 X38.178 Y119.607 E265.51987
G1 X40.653 Y115.144 E268.71976
G1 X41.674 Y113.345 E270.01677
G1 X44.134 Y108.902 E273.20112
G1 X45.158 Y107.101 E274.50015
G1 X47.257 Y103.316 E277.21392
G1 X48.115 Y101.803 E278.30452
G1 X49.463 Y99.372 E280.04746
G1 X50.135 Y98.187 E280.90164
G1 X50.793 Y97.042 E281.72968
G1 X51.075 Y96.565 E282.07713
G1 X51.291 Y96.248 E282.31765
G1 X51.457 Y96.234 E282.4221
G1 X55.492 Y96.165 E284.95249
G1 X58.051 Y96.107 E286.55744
G1 X59.061 Y96.095 E287.19078
G1 X63.109 Y96.003 E289.7296
G1 X64.716 Y95.984 E290.73729
G1 X69.512 Y95.873 E293.74528
G1 X71.421 Y95.849 E294.94235
G1 X76.225 Y95.74 E297.95532
G1 X78.14 Y95.716 E299.15616
G1 X82.219 Y95.623 E301.71443
G1 X83.842 Y95.602 E302.73217
G1 X86.458 Y95.543 E304.37287
G1 X87.491 Y95.53 E305.02063
G1 X89.005 Y95.496 E305.97017
G1 X89.589 Y95.488 E306.33639
G1 X91.492 Y95.451 E307.52983
G1 X91.558 Y95.481 E307.57529
G1 X91.813 Y95.716 E307.79272
G1 X92.435 Y96.475 E308.40802
G1 X92.688 Y96.849 E308.69114
G0 X88.913 Y97.399
G1 X87.524 Y97.428 E309.56226
G1 X86.501 Y97.442 E310.20376
G1 X86.137 Y97.451 E310.43206
G1 X97.859 Y109.173 E320.82641
G1 X98.644 Y110.54 E321.81481
G1 X99.301 Y111.712 E322.65727
G1 X101.072 Y114.8 E324.88933
G1 X101.599 Y115.742 E325.56613
G1 X83.366 Y97.508 E341.73447
G1 X82.261 Y97.522 E342.42738
G1 X80.59 Y97.56 E343.4754
G1 X105.358 Y122.329 E365.43857
G1 X105.865 Y123.214 E366.07809
G1 X106.512 Y124.368 E366.90764
G1 X107.816 Y126.639 E368.54964
G1 X108.342 Y127.576 E369.2234
G1 X109.1 Y128.899 E370.17946
G1 X77.821 Y97.62 E397.91574
G1 X76.267 Y97.639 E398.8902
G1 X75.04 Y97.667 E399.65975
G1 X109.758 Y132.385 E430.44552
G1 X109.52 Y132.93 E430.81841
G1 X109.267 Y133.397 E431.15144
G1 X108.81 Y134.266 E431.76707
G1 X72.274 Y97.729 E464.16538
G1 X71.455 Y97.748 E464.67905
G1 X69.555 Y97.772 E465.87048
G1 X69.49 Y97.774 E465.91125
G1 X107.789 Y136.074 E499.87288
G1 X106.758 Y137.87 E501.17137
G1 X66.724 Y97.837 E536.6706
G1 X64.749 Y97.882 E537.90928
G1 X63.951 Y97.892 E538.40968
G1 X105.706 Y139.647 E575.43543
G1 X104.646 Y141.416 E576.72851
G1 X61.178 Y97.947 E615.27369
G1 X59.093 Y97.994 E616.58136
G1 X58.404 Y98.002 E617.0134
G1 X103.574 Y143.172 E657.06736
G1 X102.495 Y144.921 E658.35592
G1 X55.635 Y98.062 E699.90802
G1 X55.53 Y98.064 E699.97387
G1 X52.855 Y98.11 E701.6514
G1 X101.416 Y146.67 E744.71184
G1 X100.742 Y147.761 E745.51593
G1 X100.329 Y148.412 E745.99934
G1 X51.516 Y99.6 E789.28324
G1 X51.12 Y100.3 E789.78752
G1 X50.502 Y101.413 E790.58575
G1 X99.227 Y150.139 E833.79251
G1 X98.123 Y151.863 E835.07614
G1 X49.488 Y103.229 E878.20221
G1 X48.914 Y104.244 E878.93335
G1 X48.472 Y105.041 E879.50479
G1 X97.017 Y153.586 E922.55149
G1 X96.976 Y153.65 E922.59915
G1 X95.92 Y155.255 E923.8038
G1 X95.895 Y155.292 E923.8318
G1 X47.463 Y106.86 E966.7783
G1 X46.815 Y108.031 E967.61746
G1 X46.448 Y108.673 E968.08114
G1 X94.749 Y156.974 E1010.91148
G1 X93.602 Y158.656 E1012.188
G1 X45.428 Y110.482 E1054.90573
G1 X44.421 Y112.303 E1056.21048
G1 X92.413 Y160.296 E1098.76726
G1 X91.156 Y161.867 E1100.02881
G1 X43.412 Y114.123 E1142.36524
G1 X43.33 Y114.273 E1142.47243
G1 X42.391 Y115.93 E1143.66663
G1 X89.371 Y162.911 E1185.32603
G1 X86.704 Y162.965 E1186.99863
G1 X86.598 Y162.966 E1187.0651
G1 X41.38 Y117.748 E1227.16162
G1 X40.371 Y119.567 E1228.46589
G1 X83.826 Y163.022 E1266.99909
G1 X83.353 Y163.034 E1267.29577
G1 X82.305 Y163.046 E1267.95293
G1 X81.049 Y163.074 E1268.74066
G1 X39.355 Y121.379 E1305.71276
G1 X38.96 Y122.079 E1306.21673
G1 X38.341 Y123.194 E1307.01637
G1 X78.284 Y163.137 E1342.43535
G1 X78.227 Y163.138 E1342.47109
G1 X76.625 Y163.157 E1343.47565
G1 X75.501 Y163.182 E1344.18059
G1 X37.333 Y125.015 E1378.02517
G1 X36.852 Y125.883 E1378.6474
G1 X36.317 Y126.827 E1379.32775
G1 X72.735 Y163.245 E1411.62098
G1 X71.875 Y163.265 E1412.16036
G1 X69.996 Y163.289 E1413.33863
G1 X69.951 Y163.29 E1413.36685
G1 X35.309 Y128.647 E1444.08568
G1 X34.922 Y129.348 E1444.58775
G1 X34.624 Y129.904 E1444.98329
G1 X34.319 Y130.485 E1445.39473
G1 X67.185 Y163.352 E1474.53871
G1 X65.278 Y163.395 E1475.73474
G1 X64.411 Y163.406 E1476.27841
G1 X37.075 Y136.07 E1500.51828
G1 X37.328 Y136.492 E1500.82679
G1 X38.198 Y137.988 E1501.9119
G1 X40.45 Y141.757 E1504.66485
G1 X41.171 Y142.994 E1505.56261
G1 X61.635 Y163.459 E1523.70926
G1 X59.421 Y163.508 E1525.09782
G1 X58.863 Y163.514 E1525.44772
G1 X45.288 Y149.939 E1537.48519
G1 X47.688 Y153.958 E1540.4203
G1 X48.561 Y155.452 E1541.50527
G1 X49.437 Y156.917 E1542.57555
G1 X56.087 Y163.567 E1548.47236
G1 X55.278 Y163.585 E1548.97974
G1 X54.302 Y163.598 E1549.59176
G1 X53.443 Y163.599 E1550.13037
G1 X53.013 Y162.915 E1550.63696
G1 X52.448 Y161.979 E1551.32249
G1 X51.297 Y160.052 E1552.72988
G1 X50.749 Y159.111 E1553.41266
G0 X93.994 Y102.48
G1 X88.913 Y97.399 E1557.91818
G1 X89.047 Y97.395 E1558.00224
G1 X89.62 Y97.387 E1558.36155
G1 X90.709 Y97.365 E1559.04452
G1 X90.913 Y97.615 E1559.24684
G1 X91.119 Y97.923 E1559.47917
G1 X91.883 Y99.022 E1560.31842
G1 X92.834 Y100.543 E1561.44318
G1 X93.224 Y101.182 E1561.91258
;MESH:NONMESH
G0 F600 X93.224 Y101.182 ;Z4
G0 F7200 X113.037 Y133.369
;TIME_ELAPSED:25.014626

G28 X ;Home
G28 Y
G0 F6000 X0 Y0 Z6
G4 P30000 ;pause 30s
G0 F7200 X113.037 Y133.369

;LAYER:1
;TYPE:WALL-OUTER
;MESH:PhilippPot.obj
G1 X112.185 Y135.179 E1563.16693
G1 X111.784 Y135.914 E1563.69191
G1 X110.297 Y138.786 E1565.71977
G1 X107.977 Y143.064 E1568.77121
G92 E0
G1 X107.342 Y144.174 E0.80183
G1 X104.587 Y149.09 E4.33529
G1 X103.822 Y150.39 E5.28108
G1 X101.014 Y155.215 E8.78148
G1 X100.241 Y156.478 E9.70995
G1 X97.771 Y160.466 E12.65127
G1 X97.106 Y161.487 E13.41527
G1 X95.367 Y163.887 E15.27363
G1 X94.935 Y164.453 E15.72008
G1 X93.787 Y165.622 E16.74741
G1 X93.562 Y165.838 E16.94298
G1 X92.817 Y166.223 E17.46879
G1 X92.332 Y166.255 E17.77356
G1 X87.649 Y166.518 E20.71451
G1 X86.848 Y166.548 E21.21711
G1 X83.853 Y166.728 E23.09842
G1 X82.65 Y166.775 E23.85329
G1 X78.126 Y167.046 E26.69501
G1 X76.718 Y167.101 E27.57853
G1 X71.448 Y167.417 E30.88885
G1 X70.048 Y167.472 E31.76735
G1 X64.81 Y167.785 E35.05753
G1 X63.624 Y167.833 E35.80179
G1 X59.201 Y168.096 E38.57999
G1 X58.439 Y168.127 E39.05817
G1 X55.601 Y168.297 E40.84084
G1 X53.595 Y168.37 E42.09947
G1 X52.778 Y168.325 E42.61252
G1 X52.565 Y168.239 E42.75655
G1 X52.321 Y168.045 E42.95201
G1 X51.854 Y167.441 E43.43073
G1 X50.726 Y165.778 E44.6907
G1 X48.801 Y162.811 E46.90832
G1 X47.699 Y161.036 E48.21833
G1 X45.117 Y157.055 E51.19353
G1 X44.318 Y155.77 E52.14231
G1 X41.259 Y151.054 E55.66692
G1 X40.468 Y149.777 E56.60878
G1 X37.391 Y145.033 E60.15427
G1 X36.712 Y143.936 E60.9632
G1 X34.064 Y139.854 E64.01406
G1 X33.612 Y139.123 E64.55296
G1 X31.852 Y136.411 E66.58013
G1 X31.581 Y135.956 E66.9122
G1 X30.536 Y134.282 E68.14955
G1 X29.942 Y133.134 E68.96002
G1 X29.793 Y132.548 E69.33914
G1 X29.806 Y132.058 E69.64649
G1 X30.087 Y131.251 E70.18229
G1 X30.98 Y129.317 E71.51798
G1 X31.193 Y128.892 E71.81605
G1 X32.612 Y126.075 E73.7938
G1 X33.627 Y124.165 E75.15001
G1 X35.807 Y119.842 E78.18576
G1 X36.528 Y118.486 E79.14871
G1 X39.082 Y113.423 E82.70435
G1 X39.801 Y112.071 E83.6645
G1 X42.349 Y107.019 E87.21228
G1 X42.959 Y105.872 E88.02685
G1 X45.12 Y101.591 E91.03373
G1 X45.513 Y100.849 E91.5602
G1 X46.906 Y98.091 E93.49758
G1 X47.962 Y96.097 E94.91236
G1 X48.474 Y95.276 E95.51904
G1 X48.694 Y95.072 E95.70716
G1 X48.958 Y94.941 E95.89196
G1 X49.321 Y94.849 E96.12676
G1 X49.775 Y94.797 E96.41329
G1 X50.277 Y94.775 E96.72835
G1 X51.556 Y94.709 E97.53138
G1 X56.619 Y94.423 E100.71103
G1 X57.385 Y94.394 E101.19167
G1 X61.906 Y94.124 E104.03147
G1 X63.095 Y94.077 E104.77758
G1 X68.47 Y93.754 E108.15389
G1 X69.87 Y93.697 E109.03244
G1 X75.275 Y93.373 E112.42756
G1 X76.665 Y93.316 E113.29985
G1 X81.264 Y93.04 E116.18869
G1 X83.181 Y92.962 E117.39168
G1 X86.139 Y92.783 E119.2498
G1 X89.823 Y92.572 E121.56352
G1 X90.323 Y92.55 E121.87733
G1 X90.647 Y92.564 E122.08067
G1 X90.944 Y92.621 E122.2703
G1 X91.314 Y92.755 E122.51704
G1 X91.599 Y92.894 E122.71586
G1 X92.139 Y93.325 E123.14908
G1 X92.955 Y94.212 E123.90479
G1 X94.104 Y95.727 E125.09702
G1 X95.333 Y97.539 E126.46986
G1 X95.644 Y98.019 E126.82848
G1 X97.138 Y100.344 E128.56133
G1 X97.53 Y100.983 E129.03138
G1 X99.258 Y103.747 E131.07527
G1 X99.713 Y104.505 E131.6296
G1 X101.64 Y107.623 E133.92789
G1 X102.693 Y109.394 E135.2198
G1 X104.787 Y112.78 E137.71607
G1 X105.334 Y113.702 E138.38827
G1 X107.42 Y117.073 E140.87391
G1 X107.919 Y117.914 E141.48707
G1 X109.821 Y120.987 E143.75311
G1 X110.226 Y121.67 E144.25099
G1 X111.768 Y124.159 E146.08687
G1 X112.034 Y124.608 E146.4141
G1 X113.041 Y126.231 E147.61171
G1 X113.773 Y127.468 E148.51296
G1 X114.082 Y128.093 E148.95013
G1 X114.173 Y128.435 E149.17203
G1 X114.215 Y128.889 E149.45791
G1 X114.196 Y129.434 E149.79984
G1 X114.11 Y130.1 E150.22091
G1 X113.959 Y130.849 E150.69999
G1 X113.758 Y131.642 E151.21294
G1 X113.263 Y132.92 E152.07228
G1 X113.037 Y133.369 E152.38746
G0 X112.867 Y133.731
G0 X112.777 Y133.688
G0 X111.248 Y132.498
;TYPE:SKIN
